X: 2398
T: SAND JIG
%R: sand jig, hornpipe, march
B: James Kerr "Merry Melodies" v.2 p.45 #398
Z: 2016 John Chambers <jc:trillian.mit.edu>
M: C
L: 1/8
K: G
G,2[g2B2] G,2[g2B2] | G,2[g2B2] G,2 !segno!|:\
g2 |\
f>de>^c d2d2 | e>dc>e d2g2 |\
f>de>^c d2d2 | (3fed (3cBA G2 H::\
d2 |\
G2Ac Bdd2 | GBAc B2D2 |\
G2Ac Bdd2 | e>cA>F G2 :|

%%sep 1 1 500
%%sep 1 1 500

